resources/svg/folder-minus-o.svg

<svg xmlns="http://www.w3.org/2000/svg" viewBox="0 0 15 15" fill="none"><path d="M5 8.5H10M0.5 2.5V12.5C0.5 13.0523 0.947715 13.5 1.5 13.5H13.5C14.0523 13.5 14.5 13.0523 14.5 12.5V4.5C14.5 3.94772 14.0523 3.5 13.5 3.5H7.5L5.5 1.5H1.5C0.947715 1.5 0.5 1.94772 0.5 2.5Z" stroke="black"/></svg>

<svg xmlns="http://www.w3.org/2000/svg" viewBox="0 0 15 15" fill="none"><path d="M5 8.5h5m-9.5-6v10a1 1 0 001 1h12a1 1 0 001-1v-8a1 1 0 00-1-1h-6l-2-2h-4a1 1 0 00-1 1z" stroke="currentColor"/></svg>
